svg/system/check_2_line.svg

<?xml version="1.0" encoding="UTF-8"?>
<svg width="24px" height="24px" viewBox="0 0 24 24" version="1.1" xmlns="http://www.w3.org/2000/svg" xmlns:xlink="http://www.w3.org/1999/xlink">
    <title>check_2_line</title>
    <g id="Icon" stroke="none" stroke-width="1" fill="none" fill-rule="evenodd">
        <g id="System" transform="translate(-720.000000, -384.000000)">
            <g id="check_2_line" transform="translate(720.000000, 384.000000)">
                <path d="M24,0 L24,24 L0,24 L0,0 L24,0 Z M12.5935,23.2578 L12.5819,23.2595 L12.5109,23.295 L12.4919,23.2987 L12.4767,23.295 L12.4057,23.2595 C12.3958,23.2564 12.387,23.259 12.3821,23.2649 L12.378,23.2758 L12.3609,23.7031 L12.3659,23.7235 L12.3769,23.7357 L12.4805,23.8097 L12.4953,23.8136 L12.5071,23.8097 L12.6107,23.7357 L12.6233,23.7197 L12.6267,23.7031 L12.6096,23.2758 C12.6076,23.2657 12.601,23.2593 12.5935,23.2578 Z M12.8584,23.1453 L12.8445,23.1473 L12.6598,23.2397 L12.6499,23.2499 L12.6472,23.2611 L12.6651,23.6906 L12.6699,23.7034 L12.6784,23.7105 L12.8793,23.8032 C12.8914,23.8069 12.9022,23.803 12.9078,23.7952 L12.9118,23.7812 L12.8777,23.1665 C12.8753,23.1546 12.8674,23.147 12.8584,23.1453 Z M12.143,23.1473 C12.1332,23.1424 12.1222,23.1453 12.1156,23.1526 L12.1099,23.1665 L12.0758,23.7812 C12.0751,23.7927 12.0828,23.8019 12.0926,23.8046 L12.1083,23.8032 L12.3092,23.7105 L12.3186,23.7024 L12.3225,23.6906 L12.3404,23.2611 L12.3372,23.2485 L12.3278,23.2397 L12.143,23.1473 Z" id="MingCute" fill-rule="nonzero"></path>
                <path d="M19.4948,3.13267 C19.9553,2.85565 20.5523,2.99203 20.8468,3.4415 L21.8364,4.95187 C22.1031,5.35891 22.0381,5.89883 21.6824,6.23089 L21.6785,6.23455 L21.6646,6.24759 L21.6076,6.3014 C21.5569,6.34938 21.4813,6.4213 21.3834,6.5155 C21.1876,6.70391 20.9025,6.98132 20.5485,7.3344 C19.8403,8.04087 18.8578,9.04876 17.7638,10.2518 C15.566,12.6684 12.9567,15.8302 11.2008,18.8975 C10.7103,19.7544 9.51437,19.9375 8.804,19.1993 L2.31928,12.4611 C2.13148,12.266 2.03086,12.003 2.04044,11.7324 C2.05001,11.4617 2.16896,11.2065 2.37008,11.0251 L4.33024,9.25731 C4.68532,8.93707 5.21743,8.91301 5.59997,9.19991 L8.90855,11.6814 C14.0775,6.58431 17.0089,4.62834 19.4948,3.13267 Z M19.7055,5.34891 C17.4158,6.78125 14.5565,8.85763 9.70707,13.707 C9.35518,14.0589 8.79809,14.0985 8.39997,13.7999 L5.05845,11.2938 L4.4766,11.8185 L9.79391,17.3437 C11.6399,14.2733 14.1813,11.2184 16.2841,8.90615 C17.4043,7.67442 18.4099,6.64279 19.1361,5.91841 C19.3532,5.70185 19.5455,5.51261 19.7085,5.35355 L19.7055,5.34891 Z" id="形状" fill="#09244B"></path>
            </g>
        </g>
    </g>
</svg>

<svg xmlns="http://www.w3.org/2000/svg" width="24" height="24"><g fill="none" fill-rule="evenodd"><path d="M24 0v24H0V0h24ZM12.594 23.258l-.012.002-.071.035-.02.004-.014-.004-.071-.036c-.01-.003-.019 0-.024.006l-.004.01-.017.428.005.02.01.013.104.074.015.004.012-.004.104-.074.012-.016.004-.017-.017-.427c-.002-.01-.009-.017-.016-.018Zm.264-.113-.014.002-.184.093-.01.01-.003.011.018.43.005.012.008.008.201.092c.012.004.023 0 .029-.008l.004-.014-.034-.614c-.003-.012-.01-.02-.02-.022Zm-.715.002a.023.023 0 0 0-.027.006l-.006.014-.034.614c0 .012.007.02.017.024l.015-.002.201-.093.01-.008.003-.011.018-.43-.003-.012-.01-.01-.184-.092Z"/><path fill="#09244B" d="M19.495 3.133a1 1 0 0 1 1.352.309l.99 1.51a1 1 0 0 1-.155 1.279l-.003.004-.014.013-.057.053-.225.215a83.86 83.86 0 0 0-3.62 3.736c-2.197 2.416-4.806 5.578-6.562 8.646-.49.856-1.687 1.04-2.397.301l-6.485-6.738a1 1 0 0 1 .051-1.436l1.96-1.768A1 1 0 0 1 5.6 9.2l3.309 2.481c5.169-5.097 8.1-7.053 10.586-8.548Zm.21 2.216c-2.29 1.432-5.148 3.509-9.998 8.358A1 1 0 0 1 8.4 13.8l-3.342-2.506-.581.524 5.317 5.526c1.846-3.07 4.387-6.126 6.49-8.438a85.904 85.904 0 0 1 3.425-3.552l-.003-.005Z"/></g></svg>
